X: 406
T: Zhu yitian niangjia shang yitian tian
L: 1/16
M: 2/4
K: G
e2e4B A [I:setbarnb 1]| 
G2 E2 d d2 B | 
B d A G2< E2 A | 
E8 | 
e2e4B A | 
G2 E2 d d2 B | 
B d A G2< E2 G | 
A8 |]

@@@ Tune index: 9280
